src/assets/icons/walkthrough-2.svg

<svg  viewBox="0 0 24 24" fill="none" xmlns="http://www.w3.org/2000/svg">
<path d="M19.5809 13.5C19.5828 13.8073 19.4895 14.1076 19.3138 14.3597C19.138 14.6117 18.8885 14.8031 18.5995 14.9075L13.7095 16.7091L11.9079 21.5991C11.8018 21.887 11.61 22.1354 11.3583 22.3109C11.1067 22.4864 10.8072 22.5805 10.5004 22.5805C10.1936 22.5805 9.89414 22.4864 9.64246 22.3109C9.39078 22.1354 9.19896 21.887 9.09287 21.5991L7.29129 16.7091L2.40128 14.9075C2.11339 14.8014 1.86496 14.6096 1.68948 14.3579C1.514 14.1063 1.41992 13.8068 1.41992 13.5C1.41992 13.1932 1.514 12.8937 1.68948 12.6421C1.86496 12.3904 2.11339 12.1986 2.40128 12.0925L7.29129 10.2909L9.09287 5.40088C9.19896 5.11299 9.39078 4.86456 9.64246 4.68908C9.89414 4.51361 10.1936 4.41952 10.5004 4.41952C10.8072 4.41952 11.1067 4.51361 11.3583 4.68908C11.61 4.86456 11.8018 5.11299 11.9079 5.40088L13.7095 10.2909L18.5995 12.0925C18.8885 12.1969 19.138 12.3883 19.3138 12.6403C19.4895 12.8924 19.5828 13.1927 19.5809 13.5V13.5ZM14.2504 4.5H15.7504V6C15.7504 6.19891 15.8294 6.38968 15.9701 6.53033C16.1107 6.67098 16.3015 6.75 16.5004 6.75C16.6993 6.75 16.8901 6.67098 17.0307 6.53033C17.1714 6.38968 17.2504 6.19891 17.2504 6V4.5H18.7504C18.9493 4.5 19.1401 4.42098 19.2807 4.28033C19.4214 4.13968 19.5004 3.94891 19.5004 3.75C19.5004 3.55109 19.4214 3.36032 19.2807 3.21967C19.1401 3.07902 18.9493 3 18.7504 3H17.2504V1.5C17.2504 1.30109 17.1714 1.11032 17.0307 0.96967C16.8901 0.829018 16.6993 0.75 16.5004 0.75C16.3015 0.75 16.1107 0.829018 15.9701 0.96967C15.8294 1.11032 15.7504 1.30109 15.7504 1.5V3H14.2504C14.0515 3 13.8607 3.07902 13.7201 3.21967C13.5794 3.36032 13.5004 3.55109 13.5004 3.75C13.5004 3.94891 13.5794 4.13968 13.7201 4.28033C13.8607 4.42098 14.0515 4.5 14.2504 4.5ZM22.5004 7.5H21.7504V6.75C21.7504 6.55109 21.6714 6.36032 21.5307 6.21967C21.3901 6.07902 21.1993 6 21.0004 6C20.8015 6 20.6107 6.07902 20.4701 6.21967C20.3294 6.36032 20.2504 6.55109 20.2504 6.75V7.5H19.5004C19.3015 7.5 19.1107 7.57902 18.9701 7.71967C18.8294 7.86032 18.7504 8.05109 18.7504 8.25C18.7504 8.44891 18.8294 8.63968 18.9701 8.78033C19.1107 8.92098 19.3015 9 19.5004 9H20.2504V9.75C20.2504 9.94891 20.3294 10.1397 20.4701 10.2803C20.6107 10.421 20.8015 10.5 21.0004 10.5C21.1993 10.5 21.3901 10.421 21.5307 10.2803C21.6714 10.1397 21.7504 9.94891 21.7504 9.75V9H22.5004C22.6993 9 22.8901 8.92098 23.0307 8.78033C23.1714 8.63968 23.2504 8.44891 23.2504 8.25C23.2504 8.05109 23.1714 7.86032 23.0307 7.71967C22.8901 7.57902 22.6993 7.5 22.5004 7.5Z" fill="url(#paint0_linear_497_3789)"/>
<defs>
<linearGradient id="paint0_linear_497_3789" x1="0.200485" y1="-0.177795" x2="28.6459" y2="6.11172" gradientUnits="userSpaceOnUse">
<stop stop-color="#176FEB"/>
<stop offset="1" stop-color="#FF80FF"/>
</linearGradient>
</defs>
</svg>

<svg xmlns="http://www.w3.org/2000/svg" fill="none" viewBox="0 0 24 24"><path fill="url(#a)" d="M19.58 13.5a1.49 1.49 0 0 1-.98 1.408l-4.89 1.801-1.802 4.89a1.5 1.5 0 0 1-2.815 0L7.29 16.71l-4.89-1.801a1.5 1.5 0 0 1 0-2.815l4.89-1.802L9.093 5.4a1.5 1.5 0 0 1 2.815 0l1.802 4.89 4.89 1.801a1.49 1.49 0 0 1 .98 1.408m-5.33-9h1.5V6a.75.75 0 1 0 1.5 0V4.5h1.5a.75.75 0 1 0 0-1.5h-1.5V1.5a.75.75 0 1 0-1.5 0V3h-1.5a.75.75 0 1 0 0 1.5m8.25 3h-.75v-.75a.75.75 0 1 0-1.5 0v.75h-.75a.75.75 0 1 0 0 1.5h.75v.75a.75.75 0 1 0 1.5 0V9h.75a.75.75 0 1 0 0-1.5"/><defs><linearGradient id="a" x1=".2" x2="28.646" y1="-.178" y2="6.112" gradientUnits="userSpaceOnUse"><stop stop-color="#176FEB"/><stop offset="1" stop-color="#FF80FF"/></linearGradient></defs></svg>
